!!!OTL: Rundgesang. Vivat Bachus!
!!!OTL-incipit:  VIVAT BACCHUS BACCHUS LEBE
!!!COM: Nach W. A. Mozart
!!!ARE: Europa, Mitteleuropa, Deutschland
!!!SCT: F0533
!!!TXL: @@DE
!!!YEM: Copyright 1995, estate of Helmut Schaffrath.
**kern	**text
*ICvox	*
*clefG2	*
*M2/4	*
*k[b-]	*
*F:	*
=1	=1
!LO:TX:a:t=Einer.	!
!LO:TX:a:t=Fröhlich.	!
{8.f	Vi-
16f	-vat
8f	Bachus,
8f	.
=2	=2
8f	Bachus
8c	.
8A	le-
8c}	-be!
=3	=3
!LO:TX:a:t=Alle.	!
{4f	Bachus
4cc	.
=4	=4
4a	le-
4f}	-be!
=5	=5
!LO:TX:a:t=Einer.	!
{4.g	Bachus
8g	.
=6	=6
4.g	war
8f	ein
=7	=7
4e	bra-
4d	-ver
=8	=8
4c	Mann,
4r}	.
=9	=9
!LO:TX:a:t=Einer.	!
{8.f	der
16f	ʒu-
8f	-erſt
8f	der
=10	=10
8f	goldnen
8c	.
8A	Re-
8c}	-be,
=11	=11
!LO:TX:a:t=Alle.	!
{4f	goldnen
4cc	.
=12	=12
4a	Re-
4f}	-be
=13	=13
!LO:TX:a:t=Einer.	!
{4.g	ſü-
8g	-ßen
=14	=14
4.g	Nektar
8f	.
=15	=15
4e	ab-
4d	-ge-
=16	=16
4c	-wann.
8r}	.
{8f	Es
=17	=17
8eL	le-
8dJ	.
8e	-ben
8f	die
=18	=18
8gL	Schwarʒen,
8aJ	.
8g}	.
{8f	die
=19	=19
8eL	Blonden,
8dJ	.
8e	.
8f	die
=20	=20
8gL	Braunen,
8aJ	.
8g}	.
{8f	ſie
=21	=21
8e	le-
8e	-ben
8d	al-
8g	-le
=22	=22
4cc;	hoch!
8r}	.
!LO:TX:a:t=Alle.	!
{8b-/	Es
=23	=23
(8aL	le-
8gJ)	.
8a	-ben
8b-/	die
=24	=24
(8ccL	Schwarʒen,
8ddJ)	.
8cc}	.
{8b-	die
=25	=25
(8aL	Blonden,
8gJ)	.
8a	.
8b-/	die
=26	=26
(8ccL	Braunen!
8ddJ)	.
8cc}	.
{8b-	ſie
=27	=27
8a	le-
8a	-ben
8g	al-
8g	-le
=28	=28
4f	hoch!
4r}	.
=29	=29
!LO:TX:a:t=Einer.	!
{8.f	Ob
16f	ich's
8f	wa-
8f	-ge,
=30	=30
8e	ob
8g	ich's
4c}	thu',
=31	=31
{8.g	ob's
16g	die
8g	Herrn
8g	auch
=32	=32
8a	laſ-
8cc	-ſen
8f;}	ʒu?
!LO:TX:a:t=Alle.	!
{8b-	Hin-
=33	=33
8aL	-un-
8gJ	.
8a	-ter
8b-/	den
=34	=34
(8ccL	Plunder!
8ddJ)	.
8cc}	.
{8b-	hin-
=35	=35
8aL	-un-
8gJ	.
8a	-ter
8b-/	den
=36	=36
(8ccL	Plunder!
8ddJ)	.
8cc}	.
{8b-	hin-
=37	=37
4a	-un-
8g	-ter
8g	mit
=38	=38
4f	ihm!
8r}	.
!LO:TX:a:t=Einige, dann Alle.	!
{8c	Es
=39	=39
4f	iſt
4a	ge-
=40	=40
4.cc/}	-ſcheh'n,
{8b-/	wir
=41	=41
8a	ha-
8a	-ben's
8g	all
8g	ge-
=42	=42
4f	-ſehn.
8r}	.
{8c	Es
=43	=43
4f	iſt
4a	ge-
=44	=44
4.cc/}	-ſcheh'n,
{8b-/	wir
=45	=45
8a	ha-
8a	-ben's
8g	all
8g	ge-
=46	=46
4f	-ſehn.
!LO:N:vis=4	!
4r}	.
==;	==
!!!AGN: Studenten -, Trink - Lied, Rundgesang
!!!ONB: ESAC (Essen Associative Code) Database: FINK
!!!AMT: simple duple
!!!AIN: vox
!!!EED: Helmut Schaffrath
!!!EEV: 1.0
!!!GTL: Studentenlieder
!!Text: Studentenlied
!!!source: Musikalischer Hausschatz der Deutschen. Eine Sammlung von über 1000 Liedern und Gesängen mit Singstimmen und Klavierbegleitung. Leipzig, Litterarisches Verlags-Haus.
!!!page: 341
!!!URL-scan: https://www.digitale-sammlungen.de/en/view/bsb11144622?page=318
!!!ENC: Anna Maria Matuszewska
!!!EEV: 2024/08/01
*-	*-
